X:93
T: Én is, én is csak úgy élek
O: Trunk (Bákó), 1930
Q:1/4=72
M:2/4
L:1/8
K:F
cccA | BBA(G/A/) | 
(B/A/)G/B/ dc | (Bd) F2 | 
cccA | BBA(G/A/) | 
(B/A/)G/B/ dD | G2 G z |

